X:1
T:Title
%%score { 1 | ( 2 3 ) }
L:1/8
M:4/4
K:G
V:1 treble nm="Grand Piano"
V:2 treble 
V:3 treble 
V:1
 z4 z2[Q:1/4=100] GA | B2 B2 [FB]2 [FA]2 | A4 G2 Bc | d2 d2 d2 [Fc]2 | B6 cd | %5
 [Ge]2 [Ge]2 [Gc]2 [Ge]2 | d4 B2 GA | B2 B2 B2 [^CGA]2 | [DFA]6 [B,DG][CDA] | %9
 [DGB]2 [DGB]2 [DFB]2 [CFA]2 | A4 G2 Bc | d2 d2 d2 [Fc]2 | B6 cd | [Ge]2 [Ge]2 [Gc]2 [Ge]2 | %14
 d4 B2 GA | B2 [EA]2 G2 F2 |[M:3/4] G6 |[M:1/4] FG |[M:4/4] [FA]2 [FA]2 [FA]2 [FB]2 | %19
 G4 D2 [FA][GB] | [Ac]2 [Ac]2 [Ac]2 [Fd]2 | B6 Bc | d2 [DGB]2 [CGc]2 [Gd]2 | [Ge]6 [Ec][CEA] | %24
 [B,DG]2 [DGB]2 [CFA]3 [B,DG] |[M:3/4] [B,DG]6 |] %26
V:2
 z4 z2 [G,B,D][G,CD] | [G,DG]2 [G,DG]2[K:bass] [D,D]2 [D,C]2 | [G,CD]4 [G,B,D]2 [G,DG][A,DG] | %3
 [B,DG]2 [B,DG]2 [A,DF]2 [D,D]2 | [G,DG]6 [G,A,G][G,B,G] | [C,C]2 [C,C]2 [E,C]2 [C,C]2 | %6
 [G,B,G]4 [G,DG]2 [G,B,D][G,CD] | [G,DG]2 [G,DG]2 [A,^CG]2[K:bass] A,,2 | D,6 G,G, | %9
 G,2 G,2 D,2 D,2 | [G,CD]4 [G,B,D]2 [G,DG][A,DG] | [B,DG]2 [B,DG]2 [A,DF]2 [D,D]2 | %12
 [G,DG]6 [G,A,G][G,B,G] | [C,C]2 [C,C]2 [E,C]2 [C,C]2 | [G,B,G]4 [G,DG]2 [G,B,D][G,CD] | %15
 [G,DG]2[K:bass] [C,C]2 [D,B,D]2 [D,A,D]2 |[M:3/4] [G,B,D]6 |[M:1/4] [D,A,D][D,B,D] | %18
[M:4/4] [D,C]2 [D,C]2 [D,C]2 [D,D]2 | D4 z4 | [D,D]2 [D,D]2 [D,D]2 [D,D]2 | [G,DG]6 [G,DG][A,DG] | %22
 [B,DG]2 G,[K:bass]=F, E,2 [D,B,]2 | [C,C]6 [C,A,]C, | D,2 D,2 D,3 G,, |[M:3/4] G,,6 |] %26
V:3
 x8 | x4[K:bass] x4 | x8 | x8 | x8 | x8 | x8 | x6[K:bass] x2 | x8 | x8 | x8 | x8 | x8 | x8 | x8 | %15
 x2[K:bass] x6 |[M:3/4] x6 |[M:1/4] x2 |[M:4/4] x8 | [G,B,]6 [D,D][D,D] | x8 | x8 | x3[K:bass] x5 | %23
 x8 | x8 |[M:3/4] x6 |] %26

